mono-glyphs/wifi-w.svg

<svg xmlns="http://www.w3.org/2000/svg" width="1024" height="1024" fill="none" viewBox="0 0 1024 1024">
  <g clip-path="url(#a)">
    <path fill="#fff" d="M510.598 231.453c-34.649 0-69.063 3.741-103.243 11.222-34.18 7.481-67.073 18.352-98.678 32.614-31.605 14.261-61.57 31.678-89.898 52.252-28.328 20.574-53.963 43.719-76.906 69.435a334.622 334.622 0 0 0-30.551 39.978 696.563 696.563 0 0 1-29.147 41.381c-5.618 7.014-11.12 12.509-16.505 16.482-5.384 3.974-12.758 5.962-22.123 5.962-12.174 0-22.71-4.442-31.605-13.326-8.896-8.883-13.344-19.404-13.344-31.562 0-7.48 1.872-14.963 5.618-22.443 23.88-44.421 54.315-84.632 91.303-120.636 36.989-36.004 77.959-66.63 122.909-91.879 44.949-25.25 92.356-44.772 142.222-58.565 49.865-13.793 99.848-20.69 149.948-20.69 49.631 0 99.496 6.897 149.596 20.69 50.101 13.793 97.625 33.315 142.574 58.565 44.949 25.249 85.919 55.875 122.908 91.879 36.989 36.004 67.424 76.215 91.304 120.636 3.75 7.48 5.62 14.963 5.62 22.443 0 12.158-4.45 22.679-13.35 31.562-8.89 8.884-19.427 13.326-31.602 13.326-9.364 0-16.739-1.988-22.123-5.962-5.384-3.973-10.886-9.468-16.505-16.482a697.217 697.217 0 0 1-29.147-41.381 334.622 334.622 0 0 0-30.551-39.978c-22.942-25.716-48.578-48.861-76.905-69.435-28.328-20.574-58.294-37.991-89.899-52.252-31.605-14.262-64.498-25.133-98.678-32.614-34.179-7.481-68.594-11.222-103.242-11.222Zm0 269.326c-26.221 0-51.271 3.623-75.15 10.871-23.879 7.248-47.056 17.651-69.531 31.211-12.642 7.95-23.528 15.898-32.658 23.847-9.13 7.949-17.324 16.366-24.582 25.249-7.258 8.884-14.163 18.352-20.719 28.406-6.555 10.053-13.578 21.391-21.07 34.016-4.681 7.949-10.3 14.262-16.856 18.937-6.555 4.675-14.514 7.014-23.879 7.014-12.642 0-23.293-4.443-31.956-13.326-8.662-8.884-12.993-19.639-12.993-32.263 0-6.078 1.405-12.391 4.214-18.937 13.579-29.925 32.073-57.513 55.484-82.762 23.412-25.249 49.631-46.875 78.661-64.877 29.031-18.001 59.933-32.028 92.708-42.082 32.775-10.053 65.552-15.079 98.327-15.079 33.712 0 66.956 4.909 99.731 14.729 32.775 9.819 63.561 23.612 92.356 41.38 28.796 17.769 54.666 39.277 77.608 64.526 22.943 25.25 41.438 53.304 55.484 84.165 2.81 6.546 4.214 12.859 4.214 18.937 0 12.157-4.448 22.794-13.344 31.912-8.896 9.118-19.431 13.677-31.605 13.677-9.365 0-17.324-2.339-23.879-7.014-6.556-4.675-12.174-10.988-16.856-18.937-7.491-12.625-14.515-23.963-21.07-34.016-6.556-10.054-13.579-19.522-21.07-28.406-7.491-8.883-15.803-17.3-24.933-25.249-9.13-7.949-20.016-15.897-32.658-23.847-22.007-13.56-45.066-23.963-69.18-31.211-24.114-7.248-49.047-10.871-74.798-10.871ZM398.225 770.105c0-15.43 3.043-29.925 9.13-43.485 6.086-13.56 14.163-25.366 24.23-35.419 10.068-10.053 21.889-18.119 35.468-24.197 13.579-6.078 28.093-9.118 43.545-9.118 15.451 0 29.965 3.04 43.544 9.118 13.579 6.078 25.401 14.144 35.468 24.197 10.067 10.053 18.144 21.859 24.23 35.419 6.087 13.56 9.131 28.055 9.131 43.485s-3.044 29.925-9.131 43.485c-6.086 13.56-14.163 25.366-24.23 35.419-10.067 10.054-21.889 18.119-35.468 24.197-13.579 6.079-28.093 9.118-43.544 9.118-15.452 0-29.966-3.039-43.545-9.118-13.579-6.078-25.4-14.143-35.468-24.197-10.067-10.053-18.144-21.859-24.23-35.419-6.087-13.56-9.13-28.055-9.13-43.485Z"/>
  </g>
  <defs>
    <clipPath id="a">
      <path fill="#fff" d="M0 0h1024v1024H0z"/>
    </clipPath>
  </defs>
</svg>

<svg width="1024" height="1024" viewBox="0 0 1024 1024" fill="none" xmlns="http://www.w3.org/2000/svg">
<g clip-path="url(#clip0_47_1357)">
<mask id="mask0_47_1357" style="mask-type:luminance" maskUnits="userSpaceOnUse" x="-1" y="141" width="1025" height="742">
<path d="M1023.3 141.677H-0.703125V882.323H1023.3V141.677Z" fill="white"/>
</mask>
<g mask="url(#mask0_47_1357)">
<path d="M510.598 231.452C475.949 231.452 441.535 235.193 407.355 242.674C373.175 250.155 340.282 261.026 308.677 275.288C277.072 289.549 247.107 306.966 218.779 327.54C190.451 348.114 164.816 371.259 141.873 396.975C130.636 409.6 120.452 422.926 111.322 436.953C102.192 450.981 92.4756 464.774 82.1752 478.334C76.5565 485.348 71.0544 490.843 65.6704 494.816C60.2863 498.79 52.9118 500.778 43.5469 500.778C31.3727 500.778 20.8377 496.336 11.942 487.452C3.04623 478.569 -1.40234 468.048 -1.40234 455.89C-1.40234 448.41 0.470073 440.927 4.21631 433.447C28.0956 389.026 58.5305 348.815 95.5195 312.811C132.508 276.807 173.478 246.181 218.428 220.932C263.377 195.682 310.784 176.16 360.65 162.367C410.515 148.574 460.498 141.677 510.598 141.677C560.229 141.677 610.094 148.574 660.194 162.367C710.295 176.16 757.819 195.682 802.768 220.932C847.717 246.181 888.687 276.807 925.676 312.811C962.665 348.815 993.1 389.026 1016.98 433.447C1020.73 440.927 1022.6 448.41 1022.6 455.89C1022.6 468.048 1018.15 478.569 1009.25 487.452C1000.36 496.336 989.823 500.778 977.648 500.778C968.284 500.778 960.909 498.79 955.525 494.816C950.141 490.843 944.639 485.348 939.02 478.334C928.72 464.774 919.004 450.981 909.873 436.953C900.743 422.926 890.559 409.6 879.322 396.975C856.38 371.259 830.744 348.114 802.417 327.54C774.089 306.966 744.123 289.549 712.518 275.288C680.913 261.026 648.02 250.155 613.84 242.674C579.661 235.193 545.246 231.452 510.598 231.452ZM510.598 500.778C484.377 500.778 459.327 504.401 435.448 511.649C411.569 518.897 388.392 529.3 365.917 542.86C353.275 550.81 342.389 558.758 333.259 566.707C324.129 574.656 315.935 583.073 308.677 591.956C301.419 600.84 294.514 610.308 287.958 620.362C281.403 630.415 274.38 641.753 266.888 654.378C262.207 662.327 256.588 668.64 250.032 673.315C243.477 677.99 235.518 680.329 226.153 680.329C213.511 680.329 202.86 675.886 194.197 667.003C185.535 658.119 181.204 647.364 181.204 634.74C181.204 628.662 182.609 622.349 185.418 615.803C198.997 585.878 217.491 558.29 240.902 533.041C264.314 507.792 290.533 486.166 319.563 468.164C348.594 450.163 379.496 436.136 412.271 426.082C445.046 416.029 477.823 411.003 510.598 411.003C544.31 411.003 577.554 415.912 610.329 425.732C643.104 435.551 673.89 449.344 702.685 467.112C731.481 484.881 757.351 506.389 780.293 531.638C803.236 556.888 821.731 584.942 835.777 615.803C838.587 622.349 839.991 628.662 839.991 634.74C839.991 646.897 835.543 657.534 826.647 666.652C817.751 675.77 807.216 680.329 795.042 680.329C785.677 680.329 777.718 677.99 771.163 673.315C764.607 668.64 758.989 662.327 754.307 654.378C746.816 641.753 739.792 630.415 733.237 620.362C726.681 610.308 719.658 600.84 712.167 591.956C704.676 583.073 696.364 574.656 687.234 566.707C678.104 558.758 667.218 550.81 654.576 542.86C632.569 529.3 609.51 518.897 585.396 511.649C561.282 504.401 536.349 500.778 510.598 500.778ZM398.225 770.104C398.225 754.674 401.268 740.179 407.355 726.619C413.441 713.059 421.518 701.253 431.585 691.2C441.653 681.147 453.474 673.081 467.053 667.003C480.632 660.925 495.146 657.885 510.598 657.885C526.049 657.885 540.563 660.925 554.142 667.003C567.721 673.081 579.543 681.147 589.61 691.2C599.677 701.253 607.754 713.059 613.84 726.619C619.927 740.179 622.971 754.674 622.971 770.104C622.971 785.534 619.927 800.029 613.84 813.589C607.754 827.149 599.677 838.955 589.61 849.008C579.543 859.062 567.721 867.127 554.142 873.205C540.563 879.284 526.049 882.323 510.598 882.323C495.146 882.323 480.632 879.284 467.053 873.205C453.474 867.127 441.653 859.062 431.585 849.008C421.518 838.955 413.441 827.149 407.355 813.589C401.268 800.029 398.225 785.534 398.225 770.104Z" fill="white"/>
</g>
</g>
<defs>
<clipPath id="clip0_47_1357">
<rect width="1024" height="1024" fill="white"/>
</clipPath>
</defs>
</svg>
